X:960
T:The three captains
R:Set Dance
O:Ireland
B:O'Neill's 1787
S:O'Neill's 1787
Z:Transcription:Robert Thorpe , minor correction, chords:Mike Long
M:C|
L:1/8
K:G
D|\
"G"G>G (3(BGB) "D"c>AF>A|"G"G>G (3(BGB) d>BG>G|\
"C"(3(cec) A>A "G"(3(BdB) G>G|"C"A>Bc>B "C"(3(ABG) "D"(3(FED)|
"G"G>G (3(BGB) "D"c>AF>A|"G"G>G (3(BGB) d>BG>G|\
"C"(3(cec) A>A "G"(3(BdB) G>G|"C"(3(EcB) "D"(3(AGF) "G"G2G:|
|:d|\
"G"g>g (3(dcB) "C"(3(ABc) "D"(3(def)|"G"g>g (3(dBd) "C"(3(ecA) "D"A>A|\
"G"g>g (3(bge) "D"f>g (3(afd)|
{e/f/}"C"g>e (3(edc) "G"d>d (3(dcB)|\
"C"c>d (3(ecA) "G"B>c (3(dBG)|"C"A>Bc>B "C"(3(ABG) "D"(3(FED)|\
"G"G>G (3(BGB) "D"c>AF>A|
"G"G>G (3(BGB) d>BG>G|\
"C"(3(cec) A>A "G"(3(BdB) G>G|"C"(3(EcB) "D"(3(AGF) "G"G2G:|
